X:7
T:The Plane Tree
M:2/4
L:1/16
Z:Steve Mansfield, tradtunes 2005-4-5
K:Dm
|: D2FA D2FA | B2AG B4 | Bcdc BAGF |1 F2G2 A4 :|2 F2 fe d4 ||
|: d2ef e2d2 | cdcB A4 | cded c2BA |1 F2G2 A4 :|2 F2 fe d4 ||
